X: 1
T: Hedgehope Hill
C: Alistair Anderson
R: Air
M: 4/4
L: 1/8
K: EDor
Z: ABC transcription by Verge Roller
r: 32
|: ed | "A" ceae "Bm" f2 ed | "Em" Beef ed B2 | "D" dBBd BAAF | "Bm" DFAF "A" ABde |
"A" ecea "D" f2 ed | "Em" Beef ed B2 | "D" dBBd BAAF | "D" DFAF "Em" E2 :|
K: A
|: "F#m" GF | "A" EAAB cABc | "D" Bdde dc B2 | "Bm" Bdde dc (3ABc | "Bm" Bc (3dcB "A" cBAF |
"A" EAAB cABc | "D" Bdde dcdf | "E" e2 eb "A" ae (3cde | "D" dB>cB "A" A2 :|
